gnome-shell/src/eye-open-negative-filled-symbolic.svg

<?xml version="1.0" encoding="UTF-8" standalone="no"?>
<svg
   xmlns:osb="http://www.openswatchbook.org/uri/2009/osb"
   xmlns:dc="http://purl.org/dc/elements/1.1/"
   xmlns:cc="http://creativecommons.org/ns#"
   xmlns:rdf="http://www.w3.org/1999/02/22-rdf-syntax-ns#"
   xmlns:svg="http://www.w3.org/2000/svg"
   xmlns="http://www.w3.org/2000/svg"
   xmlns:sodipodi="http://sodipodi.sourceforge.net/DTD/sodipodi-0.dtd"
   xmlns:inkscape="http://www.inkscape.org/namespaces/inkscape"
   width="16"
   viewBox="0 0 16 16"
   version="1.1"
   id="svg7384"
   height="16"
   sodipodi:docname="eye-open-negative-filled-symbolic.svg"
   inkscape:version="0.92.4 (5da689c313, 2019-01-14)">
  <sodipodi:namedview
     pagecolor="#ffffff"
     bordercolor="#666666"
     borderopacity="1"
     objecttolerance="10"
     gridtolerance="10"
     guidetolerance="10"
     inkscape:pageopacity="0"
     inkscape:pageshadow="2"
     inkscape:window-width="1294"
     inkscape:window-height="704"
     id="namedview25"
     showgrid="true"
     inkscape:zoom="1"
     inkscape:cx="8.0883883"
     inkscape:cy="8"
     inkscape:window-x="72"
     inkscape:window-y="27"
     inkscape:window-maximized="1"
     inkscape:current-layer="svg7384">
    <inkscape:grid
       type="xygrid"
       id="grid1375" />
  </sodipodi:namedview>
  <metadata
     id="metadata90">
    <rdf:RDF>
      <cc:Work
         rdf:about="">
        <dc:format>image/svg+xml</dc:format>
        <dc:type
           rdf:resource="http://purl.org/dc/dcmitype/StillImage" />
        <dc:title>Gnome Symbolic Icon Theme</dc:title>
      </cc:Work>
    </rdf:RDF>
  </metadata>
  <title
     id="title9167">Gnome Symbolic Icon Theme</title>
  <defs
     id="defs7386">
    <linearGradient
       osb:paint="solid"
       id="linearGradient7212">
      <stop
         style="stop-color:#000000;stop-opacity:1;"
         offset="0"
         id="stop7214" />
    </linearGradient>
  </defs>
  <g
     transform="translate(-341.0002,-13.000323)"
     style="display:inline"
     id="layer9" />
  <g
     transform="translate(-100,-380.00032)"
     id="layer1" />
  <path
     style="opacity:1;vector-effect:none;fill:#2e3436;fill-opacity:1;stroke:none;stroke-width:1.5;stroke-linecap:butt;stroke-linejoin:round;stroke-miterlimit:4;stroke-dasharray:none;stroke-dashoffset:0;stroke-opacity:1;marker:none;marker-start:none;marker-mid:none;marker-end:none;paint-order:normal"
     d="M 8 2 C 4.35206 2.005 1.1692488 4.4765056 0.26171875 8.0097656 C 1.1767387 11.535266 4.35769 13.99765 8 14 C 11.64794 13.995 14.830751 11.523494 15.738281 7.9902344 C 14.823261 4.4647344 11.64231 2.00235 8 2 z M 7.921875 3.0292969 C 9.6621482 3.0095487 11.433086 3.6614403 12.699219 4.8652344 C 13.638809 5.694353 14.301632 6.801178 14.677734 7.9902344 C 14.197359 9.6081911 13.111069 11.036613 11.671875 11.919922 C 10.502453 12.656274 9.108507 13.009174 7.7519531 12.964844 C 6.7164631 12.951006 5.6471995 12.631211 4.7597656 12.169922 C 3.1423512 11.31709 1.8749119 9.8121443 1.3398438 8.0605469 C 1.4248901 7.5416345 1.6855474 7.0358307 1.9375 6.5664062 C 3.1259527 4.4414828 5.4832085 3.0351849 7.921875 3.0292969 z "
     id="path2314" />
  <g
     transform="translate(-100,-380.00032)"
     id="g6387" />
  <g
     transform="translate(-100,-380.00032)"
     id="layer11" />
  <path
     style="opacity:1;vector-effect:none;fill:#2e3436;fill-opacity:1;stroke:none;stroke-width:1;stroke-linecap:round;stroke-linejoin:round;stroke-miterlimit:4;stroke-dasharray:none;stroke-dashoffset:0;stroke-opacity:1"
     d="M 8.1953125,4.0039062 C 8.0619,3.9978729 7.9282691,3.9985248 7.7949219,4.0058594 5.5899747,4.1194573 3.8940508,5.9980863 4.0058594,8.203125 c 0.1125592,2.205724 1.9915023,3.902806 4.1972656,3.791016 2.205724,-0.112559 3.902806,-1.991503 3.791016,-4.197266 V 7.794925 C 11.889274,5.7432156 10.247227,4.1045487 8.1953125,4.0039062 Z m -0.3476563,1 a 3,3 0 0 1 3.1484378,2.8417969 v 0.00195 A 3,3 0 0 1 8.1523438,10.996091 3,3 0 0 1 5.0039062,8.1523409 3,3 0 0 1 7.8476562,5.0039031 Z"
     id="path1379"
     inkscape:connector-curvature="0" />
  <path
     style="opacity:1;vector-effect:none;fill:#2e3436;fill-opacity:1;stroke:none;stroke-width:1;stroke-linecap:round;stroke-linejoin:round;stroke-miterlimit:4;stroke-dasharray:none;stroke-dashoffset:0;stroke-opacity:1"
     d="M 7.8984375 6.0019531 A 2 2 0 0 0 6.0019531 8.1015625 A 2 2 0 0 0 8.1015625 9.9980469 A 2 2 0 0 0 9.9980469 7.8984375 A 2 2 0 0 0 9.9101562 7.4121094 A 1 1 0 0 1 9.0507812 7.9980469 A 1 1 0 0 1 8.0019531 7.0507812 A 1 1 0 0 1 8.5839844 6.0898438 A 2 2 0 0 0 7.8984375 6.0019531 z "
     id="path1391" />
</svg>

<svg version="1.1" viewBox="0 0 16 16" xmlns="http://www.w3.org/2000/svg">
 <title>Gnome Symbolic Icon Theme</title>
 <path d="m8 2c-3.6479 5e-3 -6.8308 2.4765-7.7383 6.0098 0.91502 3.5255 4.096 5.9879 7.7383 5.9902 3.6479-5e-3 6.8308-2.4765 7.7383-6.0098-0.91502-3.5255-4.096-5.9879-7.7383-5.9902zm-0.078125 1.0293c1.7403-0.019748 3.5112 0.63214 4.7773 1.8359 0.93959 0.82912 1.6024 1.9359 1.9785 3.125-0.48038 1.618-1.5667 3.0464-3.0059 3.9297-1.1694 0.73635-2.5634 1.0893-3.9199 1.0449-1.0355-0.013838-2.1048-0.33363-2.9922-0.79492-1.6174-0.85283-2.8849-2.3578-3.4199-4.1094 0.085046-0.51891 0.3457-1.0247 0.59766-1.4941 1.1885-2.1249 3.5457-3.5312 5.9844-3.5371zm0.072266 0.9707c-0.066753 3.256e-4 -0.13255 0.0021921-0.19922 0.0058594-2.2049 0.1136-3.9009 1.9922-3.7891 4.1973 0.11256 2.2057 1.9915 3.9028 4.1973 3.791 2.2057-0.11256 3.9028-1.9915 3.791-4.1973v-0.0019531c-0.10487-2.0517-1.7469-3.6904-3.7988-3.791-0.066706-0.0030166-0.13442-0.0042318-0.20117-0.0039062zm-0.14648 1.0039a3 3 0 0 1 3.1484 2.8418v0.0019531a3 3 0 0 1-2.8438 3.1484 3 3 0 0 1-3.1484-2.8438 3 3 0 0 1 2.8438-3.1484zm0.050781 0.99805a2 2 0 0 0-1.8965 2.0996 2 2 0 0 0 2.0996 1.8965 2 2 0 0 0 1.8965-2.0996 2 2 0 0 0-0.087891-0.48633 1 1 0 0 1-0.85938 0.58594 1 1 0 0 1-1.0488-0.94727 1 1 0 0 1 0.58203-0.96094 2 2 0 0 0-0.68555-0.087891z" fill="#2e3436" style="paint-order:normal"/>
</svg>
